X:1
T:No.21 John Doherty's Fancy
C:reel
M:4/4
L:1/8
K:D
FEDF AdAG|FdAF GFED|
EFAF D2ge|fdec dABG|
FEDF AdAG|FdAF GFED|
FGAF D2eg|[1fdec d4:|[2fdec defg||
a2fa dafa|g2e=c Gceg|
faaf Adfa|gbag fdde|
faaf dafa|g2e=c Gceg|
fage fdec|dABG FD D2:|
